src/images_karasa_jaga_svg/cmd/lc_arrowshapes.down-arrow-callout.svg

<?xml version="1.0" encoding="UTF-8" standalone="no"?>
<!-- Created with Inkscape (http://www.inkscape.org/) -->

<svg
   xmlns:dc="http://purl.org/dc/elements/1.1/"
   xmlns:cc="http://creativecommons.org/ns#"
   xmlns:rdf="http://www.w3.org/1999/02/22-rdf-syntax-ns#"
   xmlns:svg="http://www.w3.org/2000/svg"
   xmlns="http://www.w3.org/2000/svg"
   xmlns:xlink="http://www.w3.org/1999/xlink"
   xmlns:sodipodi="http://sodipodi.sourceforge.net/DTD/sodipodi-0.dtd"
   xmlns:inkscape="http://www.inkscape.org/namespaces/inkscape"
   version="1.1"
   id="svg2"
   width="128"
   height="128"
   viewBox="0 0 128 128"
   sodipodi:docname="lc_arrowshapes.down-arrow-callout.svg"
   inkscape:export-filename="/home/rizmut/Dokumen/Rizmut/Github/libreoffice-style-karasa-jaga/build/next/cmd/lc_arrowshapes.down-arrow-callout.png"
   inkscape:export-xdpi="96"
   inkscape:export-ydpi="96"
   inkscape:version="0.92.4 (unknown)">
  <metadata
     id="metadata8">
    <rdf:RDF>
      <cc:Work
         rdf:about="">
        <dc:format>image/svg+xml</dc:format>
        <dc:type
           rdf:resource="http://purl.org/dc/dcmitype/StillImage" />
        <dc:title></dc:title>
      </cc:Work>
    </rdf:RDF>
  </metadata>
  <defs
     id="defs6">
    <inkscape:perspective
       id="perspective27"
       inkscape:persp3d-origin="64 : 42.666667 : 1"
       inkscape:vp_z="128 : 64 : 1"
       inkscape:vp_y="0 : 1000 : 0"
       inkscape:vp_x="0 : 64 : 1"
       sodipodi:type="inkscape:persp3d" />
    <linearGradient
       id="linearGradient3369">
      <stop
         id="stop3372"
         offset="0"
         style="stop-color:#ffffff;stop-opacity:1;" />
      <stop
         style="stop-color:#ffffff;stop-opacity:1;"
         offset="0.63636363"
         id="stop3374" />
      <stop
         style="stop-color:#f1f1f1;stop-opacity:1;"
         offset="0.81818181"
         id="stop3376" />
      <stop
         id="stop3378"
         offset="0.90909094"
         style="stop-color:#eaeaea;stop-opacity:1;" />
      <stop
         id="stop3384"
         offset="1"
         style="stop-color:#dfdfdf;stop-opacity:1;" />
    </linearGradient>
    <linearGradient
       id="linearGradient7422">
      <stop
         style="stop-color:#7c9fcf;stop-opacity:1"
         offset="0"
         id="stop7424" />
      <stop
         id="stop5348"
         offset="0.5"
         style="stop-color:#7c9ece;stop-opacity:1" />
      <stop
         id="stop7426"
         offset="1"
         style="stop-color:#7b9dcf;stop-opacity:1" />
    </linearGradient>
    <linearGradient
       y2="388.95178"
       x2="399.77466"
       y1="1324.7792"
       x1="405.94968"
       gradientTransform="matrix(0.08097132,0,0,0.07807154,182.74486,-6.9021226)"
       gradientUnits="userSpaceOnUse"
       id="linearGradient2330"
       xlink:href="#linearGradient7422"
       inkscape:collect="always" />
    <linearGradient
       y2="62.4501"
       x2="-38.725933"
       y1="62.4501"
       x1="262.81686"
       gradientTransform="matrix(-0.42447773,0,0,0.25739099,111.32434,47.691243)"
       gradientUnits="userSpaceOnUse"
       id="linearGradient2360"
       xlink:href="#linearGradient3369"
       inkscape:collect="always" />
    <linearGradient
       inkscape:collect="always"
       xlink:href="#linearGradient7422"
       id="linearGradient846"
       x1="-0.47894183"
       y1="64.000977"
       x2="128.00586"
       y2="64.000977"
       gradientUnits="userSpaceOnUse" />
  </defs>
  <sodipodi:namedview
     pagecolor="#ffffff"
     bordercolor="#666666"
     borderopacity="1"
     objecttolerance="10"
     gridtolerance="10"
     guidetolerance="10"
     inkscape:pageopacity="0"
     inkscape:pageshadow="2"
     inkscape:window-width="1366"
     inkscape:window-height="714"
     id="namedview4"
     showgrid="false"
     inkscape:snap-page="true"
     inkscape:snap-global="true"
     inkscape:zoom="2.8284271"
     inkscape:cx="17.609729"
     inkscape:cy="52.995224"
     inkscape:window-x="0"
     inkscape:window-y="28"
     inkscape:window-maximized="1"
     inkscape:current-layer="svg2"
     showguides="true">
    <inkscape:grid
       type="xygrid"
       id="grid837"
       spacingx="0.5"
       spacingy="0.5"
       empspacing="2" />
  </sodipodi:namedview>
  <g
     id="g871"
     transform="rotate(-90,63.9991,63.765336)">
    <path
       d="m 64,29.083984 a 5.8261937,5.8261937 0 0 0 -5.826172,5.826172 V 52.357422 H 57.509766 34.871094 l -0.07227,-9.21875 a 5.8261937,5.8261937 0 0 0 -0.002,-0.101563 C 34.642946,36.899737 26.930878,34.326945 22.902344,38.355469 L 1.2265625,60.03125 a 5.8261937,5.8261937 0 0 0 -1.66992188,4.761719 l 0.003906,0.03516 A 5.8261937,5.8261937 0 0 0 1.2304688,68.304688 L 22.554688,89.628906 c 2.272624,2.272606 5.962956,2.374821 8.11914,1.339844 2.156184,-1.034977 4.178795,-2.998124 4.123047,-6.492188 l 0.002,0.140626 0.07031,-8.972657 h 22.640625 0.664062 V 93.091797 A 5.8261937,5.8261937 0 0 0 64,98.917969 h 58.17969 a 5.8261937,5.8261937 0 0 0 5.82617,-5.826172 V 34.910156 a 5.8261937,5.8261937 0 0 0 -5.82617,-5.826172 z"
       id="path836"
       style="fill:url(#linearGradient846);fill-opacity:1;fill-rule:evenodd;stroke:none;stroke-width:4.6329999;stroke-linecap:round;stroke-linejoin:round;stroke-miterlimit:4;stroke-dasharray:none;stroke-opacity:1"
       inkscape:original="M 64 34.910156 L 64 58.183594 L 57.509766 58.183594 L 29.089844 58.183594 L 28.972656 43.183594 C 28.951015 42.320736 27.763314 41.732781 27.021484 42.474609 L 5.3457031 64.150391 L 5.3496094 64.185547 L 26.673828 85.509766 C 27.535968 86.371899 28.987666 85.511085 28.972656 84.570312 L 29.089844 69.818359 L 57.509766 69.818359 L 64 69.818359 L 64 93.091797 L 122.17969 93.091797 L 122.17969 34.910156 L 64 34.910156 z "
       inkscape:radius="5.8256111"
       sodipodi:type="inkscape:offset" />
    <path
       style="fill:url(#linearGradient2360);fill-opacity:1;fill-rule:evenodd;stroke:none;stroke-width:4.6329999;stroke-linecap:round;stroke-linejoin:round;stroke-miterlimit:4;stroke-dasharray:none;stroke-opacity:1"
       d="m 122.1801,34.9104 v 58.181 H 63.9991 V 69.819 H 57.508866 29.0905 l -0.117039,14.751954 c 0.01501,0.940773 -1.436693,1.801586 -2.298833,0.939453 L 5.35047,64.186242 5.3464878,64.149619 27.022288,42.473817 c 0.74183,-0.741828 1.929532,-0.153874 1.951173,0.708984 L 29.0905,58.1828 H 57.508866 63.9991 V 34.9104 Z"
       id="rect2326"
       inkscape:connector-curvature="0"
       sodipodi:nodetypes="cccccccccccsccccc" />
    <g
       id="g1544"
       inkscape:label="Livello 1"
       transform="matrix(0,0.57912965,0.57912965,0,27.114229,-2.9133545)" />
    <g
       id="g1599"
       inkscape:label="Livello 1"
       transform="matrix(0,-0.57912965,0.57912965,0,27.114229,130.91165)" />
  </g>
</svg>

<svg height="24" viewBox="0 0 24 24" width="24" xmlns="http://www.w3.org/2000/svg" xmlns:xlink="http://www.w3.org/1999/xlink"><linearGradient id="a" gradientTransform="matrix(-.42447773 0 0 .25739099 111.32434 47.691243)" gradientUnits="userSpaceOnUse" x1="262.81686" x2="-79.847931" y1="62.4501" y2="62.453594"><stop offset="0" stop-color="#fff"/><stop offset=".63636363" stop-color="#fff"/><stop offset=".81818181" stop-color="#f1f1f1"/><stop offset=".90909094" stop-color="#eaeaea"/><stop offset="1" stop-color="#dfdfdf"/></linearGradient><linearGradient id="b" gradientUnits="userSpaceOnUse" x1="-.478942" x2="128.00586" y1="64.000977" y2="64.000977"><stop offset="0" stop-color="#7c9fcf"/><stop offset=".5" stop-color="#7c9ece"/><stop offset="1" stop-color="#7b9dcf"/></linearGradient><g fill-rule="evenodd" transform="matrix(0 -.171875 .171875 0 1.040178 23.959345)"><path d="m63.764362 23.030729c-3.217701.000012-5.82616 2.608471-5.826172 5.826172l.235638 23.500521h-.664062-22.638672l-.07227-9.21875c-.000372-.03386-.001-.06771-.002-.101563-.153878-6.137372-7.865946-8.710164-11.89448-4.68164l-21.6757815 21.675781c-1.2507727 1.251349-1.86516231 3.003257-1.66992188 4.761719l.003906.03516c.14580553 1.314832.73473164 2.540899 1.66992218 3.476559l21.3242192 21.324218c2.272624 2.272606 5.962956 2.374821 8.11914 1.339844s4.178795-2.998124 4.123047-6.492188l.002.140626.07031-8.972657h22.640625.664062l-.235638 23.031193c.000012 3.217686 2.608444 5.826136 5.826128 5.826176l69.581238-.23426c3.2177-.00001 5.82615-2.60847 5.82617-5.826171v-69.818823c-.00002-3.2177-2.60847-5.826159-5.82617-5.826172z" fill="url(#b)"/><path d="m133.34601 28.62289v69.818182l-69.582548.234255.235638-28.856327h-6.490234-28.418366l-.117039 14.751954c.01501.940773-1.436693 1.801586-2.298833.939453l-21.324158-21.324165-.0039822-.036623 21.6758002-21.675802c.74183-.741828 1.929532-.153874 1.951173.708984l.117039 14.999999h28.418366 6.490234l-.235638-29.325655z" fill="url(#a)"/></g></svg>
